X: 16
T: Pull The Knife And Stick It Again
Z: UPipes & harp
S: https://thesession.org/tunes/398#setting50466
R: jig
M: 6/8
L: 1/8
K: Dmaj
|:E3 ~{A}GFE|DBE DBD|~E3 GFE|ABG AFD|
~E2 E GFE|DBE DEF|G2 E {G}FED|BED E3:|
|:edB BAF|EDB d2 e|{f}edB BAF|ABc def|
{f}edB BAF|EDF DEF|GFE FED|BED E3:|

